libs/icons/src/svg/text-styles.svg

<svg width="16" height="16" viewBox="0 0 16 16" fill="none" xmlns="http://www.w3.org/2000/svg">
<path d="M7.81393 13.312C7.91263 13.5879 8.17408 13.7721 8.46716 13.7721C8.94915 13.7721 9.28426 13.2927 9.11868 12.84L5.75941 3.65644C5.61519 3.26218 5.24007 2.99997 4.82026 2.99997H4.63935C4.21954 2.99997 3.84443 3.26218 3.70021 3.65644L0.336746 12.8515C0.173205 13.2986 0.504192 13.7721 0.980253 13.7721C1.2718 13.7721 1.53141 13.5876 1.62732 13.3123L2.46836 10.898C2.49635 10.8176 2.57213 10.7638 2.65723 10.7638H6.76171C6.8462 10.7638 6.92157 10.8169 6.95003 10.8964L7.81393 13.312ZM4.50765 5.08473C4.56997 4.90663 4.82162 4.90598 4.88486 5.08376L6.31855 9.11415C6.36487 9.24436 6.26831 9.38118 6.13012 9.38118H3.28604C3.14828 9.38118 3.05176 9.24516 3.09727 9.11513L4.50765 5.08473Z" fill="#202327"/>
<path d="M10.2292 11.8121C10.2292 12.9668 11.1095 14 12.4788 14C13.4013 14 14.0109 13.5881 14.3771 13.1631C14.4593 13.0676 14.6561 13.2536 14.6665 13.3791C14.6915 13.6811 14.9382 13.7721 15.2412 13.7721H15.2599C15.6491 13.7721 15.9456 13.4249 15.9269 13.0361C15.9203 12.8996 15.9162 12.7452 15.9162 12.5718V8.91019C15.9162 7.48201 15.1337 6.23616 13.1216 6.23616C11.8641 6.23616 10.8263 6.96431 10.4791 8.06619C10.3837 8.36882 10.5965 8.66405 10.904 8.74209C11.2842 8.83855 11.6471 8.5604 11.8281 8.2124C12.0693 7.74855 12.5128 7.45163 13.1495 7.45163C14.1696 7.45163 14.6027 8.04417 14.6027 8.75826C14.6027 9.01654 14.4909 9.24444 14.0857 9.30522L12.2692 9.59389C11.1095 9.77621 10.2292 10.5055 10.2292 11.8121ZM12.6605 12.7997C11.9898 12.7997 11.5706 12.2831 11.5706 11.7362C11.5706 11.0828 11.9898 10.7334 12.5487 10.6422L14.3706 10.3458C14.4923 10.326 14.6027 10.4199 14.6027 10.5432V10.6422C14.6027 12.2375 13.7364 12.7997 12.6605 12.7997Z" fill="#202327"/>
</svg>

<svg xmlns="http://www.w3.org/2000/svg" viewBox="0 0 16 16" class="sageicon"><path d="M7.814 13.312a.694.694 0 1 0 1.305-.472l-3.36-9.184A1 1 0 0 0 4.82 3h-.18a1 1 0 0 0-.94.656L.337 12.851a.685.685 0 1 0 1.29.461l.841-2.414a.2.2 0 0 1 .19-.134h4.104a.2.2 0 0 1 .188.133l.864 2.415ZM4.508 5.085a.2.2 0 0 1 .377-.001l1.434 4.03a.2.2 0 0 1-.189.267H3.286a.2.2 0 0 1-.189-.266l1.41-4.03ZM10.23 11.812c0 1.155.88 2.188 2.249 2.188.922 0 1.532-.412 1.898-.837.082-.095.28.09.29.216.024.302.271.393.574.393h.019c.39 0 .686-.347.667-.736a9.617 9.617 0 0 1-.01-.464V8.91c0-1.428-.783-2.674-2.795-2.674-1.258 0-2.296.728-2.643 1.83-.095.303.118.598.425.676.38.097.743-.182.924-.53.241-.463.685-.76 1.322-.76 1.02 0 1.453.592 1.453 1.306 0 .259-.112.486-.517.547l-1.817.289c-1.16.182-2.04.912-2.04 2.218Zm2.43.988c-.67 0-1.09-.517-1.09-1.064 0-.653.42-1.003.979-1.094l1.822-.296a.2.2 0 0 1 .232.197v.1c0 1.595-.867 2.157-1.942 2.157Z"/></svg>
